static/images/skills/flutter.svg

<svg xmlns="http://www.w3.org/2000/svg" xml:space="preserve" style="fill-rule:evenodd;clip-rule:evenodd;stroke-linejoin:round;stroke-miterlimit:2" viewBox="0 0 1200 900"><path d="M0 0h1200v900H0z" style="fill:#0d2f4e"/><path d="M12.3 64.2 76.3 0h39.4L32.1 83.6zm64 63.8h39.4L81.6 93.9l34.1-34.8H76.3L42.2 93.5z" style="fill:#3fb6d3;fill-rule:nonzero" transform="translate(300 150)scale(4.6875)"/><path d="m81.6 93.9-20-20-19.4 19.6 19.4 19.6z" style="fill:#27aacd;fill-rule:nonzero" transform="translate(300 150)scale(4.6875)"/><path d="M115.7 128 81.6 93.9l-20 19.2L76.3 128z" style="fill:#19599a;fill-rule:nonzero" transform="translate(300 150)scale(4.6875)"/><path d="m61.6 113.1 30.8-8.4-10.8-10.8z" style="fill:url(#a);fill-rule:nonzero" transform="translate(300 150)scale(4.6875)"/><defs><linearGradient id="a" x1="0" x2="1" y1="0" y2="0" gradientTransform="rotate(-31.702 234.59 -46.36)scale(32.276)" gradientUnits="userSpaceOnUse"><stop offset="0" style="stop-color:#1b4e94;stop-opacity:1"/><stop offset=".63" style="stop-color:#1a5497;stop-opacity:1"/><stop offset="1" style="stop-color:#195a9b;stop-opacity:1"/></linearGradient></defs></svg>

<?xml version="1.0" encoding="UTF-8" standalone="no"?>
<!DOCTYPE svg PUBLIC "-//W3C//DTD SVG 1.1//EN" "http://www.w3.org/Graphics/SVG/1.1/DTD/svg11.dtd">
<svg width="100%" height="100%" viewBox="0 0 1200 900" version="1.1" xmlns="http://www.w3.org/2000/svg" xmlns:xlink="http://www.w3.org/1999/xlink" xml:space="preserve" xmlns:serif="http://www.serif.com/" style="fill-rule:evenodd;clip-rule:evenodd;stroke-linejoin:round;stroke-miterlimit:2;">
    <rect x="0" y="0" width="1200" height="900" style="fill:rgb(13,47,78);"/>
    <g transform="matrix(4.6875,0,0,4.6875,300,150)">
        <path d="M12.3,64.2L76.3,0L115.7,0L32.1,83.6L12.3,64.2ZM76.3,128L115.7,128L81.6,93.9L115.7,59.1L76.3,59.1L42.2,93.5L76.3,128Z" style="fill:rgb(63,182,211);fill-rule:nonzero;"/>
    </g>
    <g transform="matrix(4.6875,0,0,4.6875,300,150)">
        <path d="M81.6,93.9L61.6,73.9L42.2,93.5L61.6,113.1L81.6,93.9Z" style="fill:rgb(39,170,205);fill-rule:nonzero;"/>
    </g>
    <g transform="matrix(4.6875,0,0,4.6875,300,150)">
        <path d="M115.7,128L81.6,93.9L61.6,113.1L76.3,128L115.7,128Z" style="fill:rgb(25,89,154);fill-rule:nonzero;"/>
    </g>
    <g transform="matrix(4.6875,0,0,4.6875,300,150)">
        <path d="M61.6,113.1L92.4,104.7L81.6,93.9L61.6,113.1Z" style="fill:url(#_Linear1);fill-rule:nonzero;"/>
    </g>
    <defs>
        <linearGradient id="_Linear1" x1="0" y1="0" x2="1" y2="0" gradientUnits="userSpaceOnUse" gradientTransform="matrix(27.46,-16.961,16.961,27.46,59.365,116.36)"><stop offset="0" style="stop-color:rgb(27,78,148);stop-opacity:1"/><stop offset="0.63" style="stop-color:rgb(26,84,151);stop-opacity:1"/><stop offset="1" style="stop-color:rgb(25,90,155);stop-opacity:1"/></linearGradient>
    </defs>
</svg>
